src/16/actions/im-ban-user.svg

<svg xmlns="http://www.w3.org/2000/svg" width="16" height="16" viewBox="0 0 16 16">
 <defs>
  <style id="current-color-scheme" type="text/css">
   .ColorScheme-Text { color:#565656; } .ColorScheme-Highlight { color:#5294e2; }
  </style>
 </defs>
 <path style="fill:currentColor" class="ColorScheme-Text" d="M 8 0 C 5.7909 -5.5e-06 4 1.7909 4 4 C 4.0000166 6.2091 5.7909 8 8 8 C 10.2091 8.000006 12 6.2091 12 4 C 12 1.7909 10.209 0 8 0 z M 8 8.9863281 C 3.972 8.9911281 0.5035 12.004 0 16 L 9.7128906 16 C 8.6785906 15.173 8 13.918 8 12.5 C 8 11.097 8.6653406 9.8407719 9.6816406 9.0136719 C 8.9431406 8.9991719 8.1873 8.9877281 8 8.9863281 z"/>
 <path style="fill:currentColor" class="ColorScheme-Highlight" d="M 12.5 9 A 3.5 3.5 0 0 0 9 12.5 A 3.5 3.5 0 0 0 12.5 16 A 3.5 3.5 0 0 0 16 12.5 A 3.5 3.5 0 0 0 12.5 9 z M 11.085938 10.378906 L 12.5 11.792969 L 13.914062 10.378906 L 14.621094 11.085938 L 13.207031 12.5 L 14.621094 13.914062 L 13.914062 14.621094 L 12.5 13.207031 L 11.085938 14.621094 L 10.378906 13.914062 L 11.792969 12.5 L 10.378906 11.085938 L 11.085938 10.378906 z"/>
</svg>

<svg xmlns="http://www.w3.org/2000/svg" width="16" height="16"><path d="M8 0a4 4 0 1 0 0 8 4 4 0 0 0 0-8zm0 8.986C3.972 8.991.503 12.004 0 16h9.713C8.679 15.173 8 13.918 8 12.5c0-1.403.665-2.66 1.682-3.486-.739-.015-1.495-.026-1.682-.028z" fill="currentColor" color="#565656"/><path d="M12.5 9A3.5 3.5 0 0 0 9 12.5a3.5 3.5 0 0 0 3.5 3.5 3.5 3.5 0 0 0 3.5-3.5A3.5 3.5 0 0 0 12.5 9zm-1.414 1.379l1.414 1.414 1.414-1.414.707.707-1.414 1.414 1.414 1.414-.707.707-1.414-1.414-1.414 1.414-.707-.707 1.414-1.414-1.414-1.414.707-.707z" fill="currentColor" color="#5294e2"/></svg>
